!!!OTL: 739b. Das Liebchen im Grabe.
!!!ODT: 1892
!!!ARE: Europa, Mitteleuropa, Deutschland, Rheinland
!!!SCT: E0739A
!!!TXL: @@DE
!!!YEM: Copyright 1995, estate of Helmut Schaffrath.
**kern	**text
*ICvox	*
*M6/8	*
*k[b-]	*
*F:	*
!LO:TX:a:t=Mäßig.	!
!LO:TX:a:t=Rheinländiſch (Becker, Rhein. Volksl. Nr. 158). 1892.	!
{8c	Jch
=1	=1
8.a	ha-
16g	-be
8f	den
8f	Frühling
8e	.
8f	ge-
=2	=2
8a	-ſeh-
8g	-en,
8r	.
4r}	.
{8c	ich
=3	=3
8.b-	ha-
16a	-be
8b-	die
8cc	Blu-
8b-	-men
8b-	be-
=4	=4
4.a	-grüßt,
4r}	.
{16aL	die
16b-J	.
=5	=5
8cc	Nach-
8b-	-ti-
8a	-gall_im
8a	Stillen
8b-	.
8cc	be-
=6	=6
4.dd	-lau-
4dd}	-ſchet
{16dd	und
16dd	ein
=7	=7
8.cc	himm-
16dd	-li-
8cc	-ſches
8cc	Mäd-
8b-	-chen
8b-	ge-
=8	=8
4.a	-küßt.
4r}	.
{16aL	die
16b-J	.
=9	=9
8cc	Nach-
8b-	-ti-
8a	-gall_im
8a	Stillen
8b-	.
8cc	be-
=10	=10
4.dd	-lau-
4dd}	-ſchet
{16dd	und
16dd	ein
=11	=11
8.cc	himm-
16dd	-li-
8cc	-ſches
8cc	Mäd-
8b-	-chen
8b-	ge-
=12	=12
4.a	-küßt.
4r}	.
==	==
!!!AGN: Liebes - Lied, Leid, Klage, Tod
!!!ONB: ESAC (Essen Associative Code) Database: ERK2
!!!AMT: compound duple
!!!AIN: vox
!!!EED: Helmut Schaffrath
!!!EEV: 1.0
!!!GTL: Liebeslieder [Neuere (aus dem 18. bis 19. Jahrh.) - Liebesleid] 678-740
!!!URL-scan: https://rosdok.uni-rostock.de/mcrviewer/recordIdentifier/rosdok_ppn745177662/iview2/phys_0544.iview2?x=193.8995864193107&y=1874.7074167216197&scale=0.7029437510502773&rotation=0&layout=singlePageLayout
!!!ENC: Anna Maria Matuszewska
!!!EEV: 2024/12/16
*-	*-
